X:69
T:Christy Barry's Set                                                                               
M:6/8                                                                                               
L:1/8                                                                                               
C:No. 1                                                                                             
K:G                                                                                                 
GGG BAG|AAB d2 e|ged BGG|AAA BGE| DGG BGG| AAB d2 e|                                                
ged BGG|AGF G2 D| GDG BAG|AAB d2 e|ged BGG|AAA BGE|                                                 
DGG BGG| AAB d2 e|ged BGG|AGF GBd |: ggg gfg|aag d2 e|                                              
ged BGG|AAA BGE| DGG BGG| AAB d2 e|ged BGG|1 AGF GBd :|2 AGF G2 D |>|
